X: 11
T: THE DUMB GLUTTON
B: "Old English Country Dances", Frank Kidson ed., William Reeves pub., London 1890
Z: 2010-9-26 John Chambers <jc:trillian.mit.edu>
M: 2/4
L: 1/8
K: G
|: B2GB | cecA | B2AG | FAc2 |\
   B2GB | c2Ac | BGAF | G2G2 :|
|: B2GB | dgdB | c2Ac | fafd |\
   Bdg2 | dBAG | c2ec | B2A2 |
   B2GB | cecA | B2AG | FAc2 |\
   B2GB | c2Ac | BGAF | G2G2 :|


%%sep 1 1 500

%%sep 1 1 500

